X:1
T:Title
%%score { ( 1 2 ) | ( 3 4 ) }
L:1/8
M:none
K:D
V:1 treble nm="P1-2"
V:2 treble 
V:3 bass 
V:4 bass 
V:1
"^Ehrenfried Liebich\n(1713-80)" F2 | B2 c2 d2 c2 | B2 c2 ^A2 F2- | F2 A2 A2 G2 | F2 B2 Bc ^A2 | %5
w: Dir,|dir, du Ge- ber|al- ler Ga- ben,|* dir, dir ge-|büh- ret al * ler|
w: |||||
w: Be-|schüt- ze die ge-|schenk- ten Gü- ter,|* lass uns die|Ga- ben wohl * ge-|
"^Neumark/\nBach" B6 | F2 | B2 c2 d2 c2 | B2 c2 ^A2 F2- | F2 A2 A2 G2 | F2 B2 Bc ^A2 | B6 | c2 | %13
w: Dank;|du|hörst das Schrei'n der|jun- gen Ra- ben,|* du liebst der|Ler- che Lob * ge-|sang;|O|
w: ||||||||
w: deihn;|lass|teu- re Zeit und|Un- ge- wit- ter,|* ent- fernt von|un- sern Gren * zen|sein.|Ver-|
 d2 e2 f2 f2 | e2 e2 d4 | z2 f2 e2 d2 | c2 Bc d2 c2 |"^↗2""^↘3" B6 |:[M:3/4] F2 B2 c2 | d4 c2 | %20
w: neig auch jetzt dein|Ohr zu mir!|Du for- derst|Dank; ich * dan- ke|dir.|Was dürr' ist,|feuch- test|
w: |||||Du teilst die|Zei- ten,|
w: hü- te Krieg und|Hun- gers- not|und gib uns|un- ser * täg- lich|Brot.|||
 B4 c2 | ^A2 F4 | A2 A2 G2 | F4 B2 | B4 ^A2 | B6 :| d2 d2 e2 | f4 f2 | e4 e2 | d6 | d2 c2 B2 | %31
w: du mit|Reg- en,|was kalt ist,|wärmt dein|Son- nen-|schein;|Bei Wär- me,|Hit- ze,|Kält und|Frost|grünt, wächst und|
w: wie den|Se- gen,|zu un- serm|Bes- ten|weis- lich|ein.||||||
w: |||||||||||
 ^A4 B2 | B4 ^A2 | B6 |] %34
w: rei- fet|uns- re|Kost.|
w: |||
w: |||
V:2
 D2 | F2 F2 F2 FE | D2 G2 F2 C2- | C2 F2 F2 E2 | D2 F2 F2 F2 | F6 | D2 | F2 F2 F2 FE | %8
w: ||||||||
w: Die|klein- ste dei- ner *|Kre- a- tu- ren|* macht dei- ne|Weis- heit of- fen-|bar:|man|sieh- et dei- ner *|
 D2 G2 F2 C2- | C2 F2 F2 E2 | D2 F2 F2 F2 | F6 | F2 | F2 A2 A2 A2 | B2 AG F4 | z2 A2 G2 ^G2 | %16
w: ||||||||
w: Lie- be Spu- ren|* und dei- ne|Macht von Jahr zu|Jahr;|ein|je- des Gräs- lein|leh- ret * mich:|Gott schuf die|
 ^A2 B2 B2 FE | ^D6 |:[M:3/4] D2 F2 F2 | F4 F2 | G4 G2 | F2 F4 | F2 F2 E2 | D4 D2 | G4 F2 | F6 :| %26
w: ||||||||||
w: Welt; Gott lie- bet *|dich.|||||||||
 F2 F2 A2 | A4 A2 | B4 A2 | F6 | A2 A2 F2 | F4 D2 | G4 F2 | F6 |] %34
w: ||||||||
w: ||||||||
V:3
 B,2 | D2 C2 B,2 ^A,2 | B,2 E2 C2 ^A,2- | A,2 C2 D2 E=A, | A,2 B,C D2 C2 | D6 | B,2 | %7
 D2 C2 B,2 ^A,2 | B,2 E2 C2 ^A,2- | A,2 C2 D2 E=A, | A,2 B,C D2 C2 | D6 | ^A,2 | B,2 C2 D2 D2 | %14
 D2 C2 A,4 | z2 D2 DCB,^G, | CF/E/ D2 ^G,^A,/B,/ A,2 | F,6 |:[M:3/4] B,2 D2 C2 | B,4 C2 | D4 E2 | %21
 C2 ^A,4 | D2 D2 B,2 | B,4 B,2 | C4 C2 | ^D6 :|"^This edition ℗ Andrew Sims 2018" B,2 B,2 C2 | %27
 D4 D2 | D4 C2 | D6 | F2 E2 D2 | C4 B,2 | C4 C2 | ^D6 |] %34
V:4
 B,,2 | B,2 ^A,2 B,2 F,2 | G,2 E,2 F,2 F,,2- | F,,2 F,2 B,,2 C,2 | D,3 E, F,2 F,,2 | B,,6 | B,,2 | %7
 B,2 ^A,2 B,2 F,2 | G,2 E,2 F,2 F,,2- | F,,2 F,2 B,,2 C,2 | D,3 E, F,2 F,,2 | B,,6 | F,2 | %13
 B,2 A,G, F,2 E,D, | G,2 A,2 D,4 | z2 D,2 E,2 =F,2 | F,2 G,F, =F,2 ^F,2 | B,,6 |: %18
[M:3/4] B,,2 B,2 ^A,2 | B,4 A,2 | G,4 E,2 | F,2 F,4 | D,2 D,2 E,2 | B,,4 G,2 | E,4 F,2 | B,,6 :| %26
 B,2 B,2 A,2 | D4 D,2 | G,4 A,2 | D,6 | D2 A,2 B,2 | F,4 G,2 | E,4 F,2 | B,,6 |] %34

